static/assets/img/icons/theme/navigation/up-2.svg

<svg height="24" viewBox="0 0 24 24" width="24" xmlns="http://www.w3.org/2000/svg"><g fill="none" fill-rule="evenodd"><path d="m0 0h24v24h-24z" opacity="0"/><g fill="#000"><rect height="10" opacity=".3" rx="1" width="2" x="11" y="10"/><path d="m6.70710678 12.7071068c-.39052429.3905243-1.02368927.3905243-1.41421356 0s-.39052429-1.0236893 0-1.4142136l5.99999998-5.99999998c.378579-.37857894.9881654-.39182456 1.3828314-.03004736l6 5.50000004c.407119.3731924.4346219 1.0057597.0614295 1.4128787s-1.0057597.4346219-1.4128787.0614295l-5.2941997-4.85301628z" fill-rule="nonzero"/></g></g></svg>

<svg width="24px" height="24px" viewBox="0 0 24 24" version="1.1" xmlns="http://www.w3.org/2000/svg" xmlns:xlink="http://www.w3.org/1999/xlink">
    <title>Icon For Up-2</title>
    <g stroke="none" stroke-width="1" fill="none" fill-rule="evenodd">
        <polygon points="0 0 24 0 24 24 0 24" opacity="0"></polygon>
        <rect fill="#000000" opacity="0.3" x="11" y="10" width="2" height="10" rx="1"></rect>
        <path d="M6.70710678,12.7071068 C6.31658249,13.0976311 5.68341751,13.0976311 5.29289322,12.7071068 C4.90236893,12.3165825 4.90236893,11.6834175 5.29289322,11.2928932 L11.2928932,5.29289322 C11.6714722,4.91431428 12.2810586,4.90106866 12.6757246,5.26284586 L18.6757246,10.7628459 C19.0828436,11.1360383 19.1103465,11.7686056 18.7371541,12.1757246 C18.3639617,12.5828436 17.7313944,12.6103465 17.3242754,12.2371541 L12.0300757,7.38413782 L6.70710678,12.7071068 Z" fill="#000000" fill-rule="nonzero"></path>
    </g>
</svg>
